X:31
T:Se\'an Bu\'i
T:Over the Water to Charlie
R:slide
H:Also in G, #61
Z:id:hn-slide-31
M:6/8
K:D
DFA BFA|Bcd AFA|DFA BFA|B2c d2D|
DFA BFA|Bcd AFA|fed edc|1 B2c d2D:|2 B2c d2e||
|:fed edc|Bcd AFA|fed edc|B2e e2g|
[1 fed edc|Bcd AFA|~D3 AFA|B2c d2e:|
[2 afd gec|dcB AFA|~D3 AFA|B2c d2D||
<end>
<start>
